X:2782
T:Ce sont les gars de Senneville
R:Branle
S:Madame Messager
A:Normandie
O:France
Z:transcrit par Jean Marc Henry
M:2/4
L:1/8
Q:1/4=80
K:D
BB/2B/2 cB|AA FF| B>B cB| AA  ","F2 |BB/2B/2 cB|AA FF|B>B cB|AA ","F2|!
F>F AA|AA BB|F>F GF|EF  D>B,|B>B Bd|cB "," c2|F>F GB|dc "^"B2||


